icons/icons/star.svg

<svg width="21" height="20" viewBox="0 0 21 20" fill="none" xmlns="http://www.w3.org/2000/svg">
<path d="M10.3928 1L12.4928 7.5H19.3928L13.7928 11.5L15.9928 18L10.3928 14L4.79282 18L6.99282 11.5L1.39282 7.5H8.29282L10.3928 1Z" fill="black"/>
</svg>

<svg width="21" height="20" viewBox="0 0 21 20" fill="none" xmlns="http://www.w3.org/2000/svg"><path d="m10.4 1 2 6.5h7l-5.6 4L16 18l-5.6-4-5.6 4L7 11.5l-5.6-4h6.9l2-6.5Z" fill="#000"/></svg>
